src/assets/icons/smallAnimal/dog.svg

<svg width="28" height="28" viewBox="0 0 28 28" fill="none" xmlns="http://www.w3.org/2000/svg">
<path d="M21.7076 11.7523C23.2761 11.7523 24.5477 10.4808 24.5477 8.91228C24.5477 8.7821 24.5383 8.65427 24.5214 8.52881L19.0516 9.91718C19.4575 10.9893 20.4935 11.752 21.708 11.752L21.7076 11.7523Z" fill="#231F20" stroke="#231F20" stroke-width="2.3" stroke-linecap="round" stroke-linejoin="round"/>
<path d="M13.1674 21.0875C13.1941 21.0875 13.2208 21.0887 13.2476 21.0887C14.3201 21.0887 15.3577 20.94 16.3413 20.6619C16.7492 20.5467 17.1476 20.4086 17.5354 20.2505C18.4731 19.8678 19.3482 19.3632 20.1411 18.7571C20.9352 18.1503 21.6455 17.4399 22.2547 16.6478C20.1281 19.331 16.8503 21.0592 13.1674 21.0875V21.0875Z" stroke="#231F20" stroke-width="0.393307" stroke-linecap="round" stroke-linejoin="round"/>
<path d="M24.5209 8.52878L24.5433 8.52328C24.585 8.91934 24.607 9.32169 24.607 9.72876C24.607 11.7334 24.0867 13.6158 23.1754 15.2504C22.9025 15.7397 22.5941 16.2065 22.2547 16.6478C20.1281 19.3309 16.8502 21.0591 13.1673 21.0875C13.137 21.0878 13.1068 21.0886 13.0761 21.0886C10.5345 21.0886 8.18256 20.278 6.26322 18.9022C5.47853 18.1401 4.21825 15.9067 5.45458 13.0699C6.01426 12.349 6.34817 11.444 6.34817 10.4607C6.34817 9.8735 6.22861 9.31461 6.01386 8.80567C5.87778 8.48395 5.70315 8.18267 5.49627 7.90697C5.25714 7.58839 4.97475 7.30403 4.65735 7.06332C4.89412 7.02242 5.13718 7 5.38536 7C5.45261 7 5.51987 7.00197 5.58634 7.00511C6.33873 7.04012 7.03961 7.2702 7.64058 7.6462C8.35561 8.09379 8.92866 8.74746 9.27595 9.52385C9.51311 10.054 9.64487 10.6416 9.64487 11.2599C9.64487 11.6324 9.59689 11.9938 9.50682 12.3384L9.50761 12.3399L13.3176 11.3728L19.0508 9.91755C19.4567 10.9897 20.4927 11.7523 21.7072 11.7523C23.2757 11.7523 24.5473 10.4808 24.5473 8.91226C24.5473 8.78207 24.5378 8.65425 24.5209 8.52878Z" stroke="#231F20" stroke-width="2.3" stroke-linecap="round" stroke-linejoin="round"/>
</svg>

<?xml version="1.0" encoding="utf-8"?>
<!-- Generator: Adobe Illustrator 26.1.0, SVG Export Plug-In . SVG Version: 6.00 Build 0)  -->
<svg version="1.1" id="Layer_1" xmlns="http://www.w3.org/2000/svg" xmlns:xlink="http://www.w3.org/1999/xlink" x="0px" y="0px"
	 viewBox="0 0 28 28" style="enable-background:new 0 0 28 28;" xml:space="preserve">
<style type="text/css">
	.st0{stroke:#000000;stroke-width:2.3;stroke-linecap:round;stroke-linejoin:round;}
	.st1{fill:none;stroke:#000000;stroke-width:0.3933;stroke-linecap:round;stroke-linejoin:round;}
	.st2{fill:none;stroke:#000000;stroke-width:2.3;stroke-linecap:round;stroke-linejoin:round;}
</style>
<path class="st0" d="M21.71,11.75c1.57,0,2.84-1.27,2.84-2.84c0-0.13-0.01-0.26-0.03-0.38l-5.47,1.39
	C19.46,10.99,20.49,11.75,21.71,11.75L21.71,11.75z"/>
<path class="st1" d="M13.17,21.09c0.03,0,0.05,0,0.08,0c1.07,0,2.11-0.15,3.09-0.43c0.41-0.12,0.81-0.25,1.19-0.41
	c0.94-0.38,1.81-0.89,2.61-1.49c0.79-0.61,1.5-1.32,2.11-2.11C20.13,19.33,16.85,21.06,13.17,21.09L13.17,21.09z"/>
<path class="st2" d="M24.52,8.53l0.02-0.01c0.04,0.4,0.06,0.8,0.06,1.21c0,2-0.52,3.89-1.43,5.52c-0.27,0.49-0.58,0.96-0.92,1.4
	c-2.13,2.68-5.4,4.41-9.09,4.44c-0.03,0-0.06,0-0.09,0c-2.54,0-4.89-0.81-6.81-2.19c-0.78-0.76-2.04-3-0.81-5.83
	c0.56-0.72,0.89-1.63,0.89-2.61c0-0.59-0.12-1.15-0.33-1.66C5.88,8.48,5.7,8.18,5.5,7.91C5.26,7.59,4.97,7.3,4.66,7.06
	C4.89,7.02,5.14,7,5.39,7c0.07,0,0.13,0,0.2,0.01c0.75,0.04,1.45,0.27,2.05,0.64c0.72,0.45,1.29,1.1,1.64,1.88
	c0.24,0.53,0.37,1.12,0.37,1.74c0,0.37-0.05,0.73-0.14,1.08l0,0l3.81-0.97l5.73-1.46c0.41,1.07,1.44,1.83,2.66,1.83
	c1.57,0,2.84-1.27,2.84-2.84C24.55,8.78,24.54,8.65,24.52,8.53z"/>
</svg>
